!!!COM:	la Rue, Pierre de
!!!CDT:	~1452///-1518/11/20
!!!OPR:	Missa Pascale
!!!ONM:	2
!!!OTL:	Gloria
!!!AGN:	Mass; Gloria
!!!SCT:	Rue1023b
!!!SCA:	Rue1023b
!!!voices-OPR:	5
!!!voices:	5
**kern	**kern	**kern	**kern	**kern
*Ivox	*Ivox	*Ivox	*Ivox	*Ivox
*I"Bassus	*I"Tenor2	*I"Tenor	*I"Contra	*I"Discantus
*I'B	*I'T2	*I'T	*I'C	*I'D
*staff5	*staff4	*staff3	*staff2	*staff1
*>[A,B]	*>[A,B]	*>[A,B]	*>[A,B]	*>[A,B]
*>A	*>A	*>A	*>A	*>A
*clefF4	*clefGv2	*clefGv2	*clefGv2	*clefG2
*k[]	*k[]	*k[]	*k[]	*k[]
*M2/1	*M2/1	*M2/1	*M2/1	*M2/1
*met(C2)	*met(C2)	*met(C2)	*met(C2)	*met(C2)
!!section: Et in terra pax
!!!OMD: Et in terra pax
=1-	=1-	=1-	=1-	=1-
0r	0r	0r	0r	0g
=2.	=2.	=2.	=2.	=2.
0r	0r	0r	0r	1b
.	.	.	.	1cc
=3	=3	=3	=3	=3
0r	0r	0r	0G	1dd
.	.	.	.	2dd\
.	.	.	.	[2dd\
=4.	=4.	=4.	=4.	=4.
0r	0r	0r	1B	2dd\]
.	.	.	.	4cc\
.	.	.	.	4b\
.	.	.	1c	1a
=5	=5	=5	=5	=5
0r	0r	0r	2d\	1r
.	.	.	1d	.
.	.	.	.	1b
.	.	.	4c\	.
.	.	.	4B\	.
=6.	=6.	=6.	=6.	=6.
0r	0r	0r	0A	1cc
.	.	.	.	1a
=7	=7	=7	=7	=7
0r	0r	0r	1r	1g
.	.	.	1B	2r
.	.	.	.	[2g/
=8.	=8.	=8.	=8.	=8.
0r	0r	0r	1c	2g/]
.	.	.	.	1a
.	.	.	1A	.
.	.	.	.	[2cc\
=9	=9	=9	=9	=9
0r	0r	0r	1G	2cc\]
.	.	.	.	2.b\
.	.	.	2r	.
.	.	.	.	4a/
.	.	.	2G/	4g/
.	.	.	.	4f/
=10.	=10.	=10.	=10.	=10.
0r	0r	0r	2A/	4e/
.	.	.	.	4d/
.	.	.	1c	1a
.	.	.	[2B\	[2g/
=11	=11	=11	=11	=11
1r	0r	0r	2B\]	2g/]
.	.	.	4A/	4f#i/
.	.	.	4G/	4e/
1D	.	.	1A	1f#i
=12.	=12.	=12.	=12.	=12.
1E	0r	0r	[0G	[0g
[1G	.	.	.	.
=13	=13	=13	=13	=13
2G\]	1r	0r	0G]	0g]
2F\	.	.	.	.
2E\	1G	.	.	.
2D\	.	.	.	.
=14.	=14.	=14.	=14.	=14.
2C/	1A	0r	0r	0r
2BB/	.	.	.	.
2.AA/	[1c	.	.	.
4BB/	.	.	.	.
=15	=15	=15	=15	=15
2C/	2c\]	0r	0r	0r
1D	4B\	.	.	.
.	4A/	.	.	.
.	4B\	.	.	.
.	4A/	.	.	.
[2E\	2c\	.	.	.
=16.	=16.	=16.	=16.	=16.
4E\]	2B\	0r	0r	0r
4D\	.	.	.	.
2C/	1A	.	.	.
1BB	.	.	.	.
.	2G#i/	.	.	.
=17	=17	=17	=17	=17
1AA	0A	0r	0r	0r
2r	.	.	.	.
2D\	.	.	.	.
=18.	=18.	=18.	=18.	=18.
1E	1r	0r	0r	0r
1F	1A	.	.	.
=19	=19	=19	=19	=19
2.G\	1B	0r	0r	0r
4F\	.	.	.	.
1E	1c	.	.	.
=20.	=20.	=20.	=20.	=20.
2D\	0d	0r	0r	0r
2.G\	.	.	.	.
4F\	.	.	.	.
2F\	.	.	.	.
=21	=21	=21	=21	=21
2G\	1d	0r	0r	0r
1GG	.	.	.	.
.	1B	.	.	.
[2D\	.	.	.	.
=22.	=22.	=22.	=22.	=22.
2D\]	2B\	0r	0r	0r
4C/	4A/	.	.	.
4BB/	4G/	.	.	.
2C/	1A	.	.	.
2D\	.	.	.	.
=23	=23	=23	=23	=23
1GG	0B	0r	0r	0r
2r	.	.	.	.
2D\	.	.	.	.
=24.	=24.	=24.	=24.	=24.
2E\	2r	0r	0r	0r
1G	2G/	.	.	.
.	2A/	.	.	.
4F\	[2c\	.	.	.
4E\	.	.	.	.
=25	=25	=25	=25	=25
1F	2c\]	0r	0r	0r
.	4B\	.	.	.
.	4A/	.	.	.
2G\	2B\	.	.	.
[2A\	[2c\	.	.	.
=26.	=26.	=26.	=26.	=26.
4A\]	4c\]	0r	0r	0r
4G\	4B\	.	.	.
1G	4A/	.	.	.
.	4G/	.	.	.
.	1A	.	.	.
2F#i\	.	.	.	.
=27	=27	=27	=27	=27
1G	[0G	0r	0d	1r
1GG	.	.	.	1b
=28.	=28.	=28.	=28.	=28.
[0GG	0G_	0r	1d	1g
.	.	.	1d	[1b
=29	=29	=29	=29	=29
0GG]	0G]	0r	1.g	1b]
.	.	.	.	[1dd
.	.	.	4f\	.
.	.	.	4e\	.
=30.	=30.	=30.	=30.	=30.
0r	0r	0r	2d\	2dd\]
.	.	.	2e\	4cc\
.	.	.	.	4b\
.	.	.	2f\	2a/
.	.	.	[2e\	2b\
=31	=31	=31	=31	=31
0r	0r	0r	2e\]	2cc\
.	.	.	2d\	2.b\
.	.	.	1c	.
.	.	.	.	4a/
.	.	.	.	2a/
=32.	=32.	=32.	=32.	=32.
0GG	1r	[0G	0B	[0b
.	1D	.	.	.
=33	=33	=33	=33	=33
1GG	1D	0G]	1d	0b]
[1GG	[1D	.	1d	.
=34.	=34.	=34.	=34.	=34.
1GG]	1D]	0G	1B	0r
1C	1E	.	1e	.
=35	=35	=35	=35	=35
1D	1F	0B	2.d\	1r
.	.	.	4c\	.
1E	1G	.	1B	1g
=36.	=36.	=36.	=36.	=36.
0AA	1.E	[0c	[0A	1a
.	.	.	.	1a
.	2F/	.	.	.
=37	=37	=37	=37	=37
0AA	2E/	0c_	0A]	1a
.	1A	.	.	.
.	.	.	.	[1cc
.	4G/	.	.	.
.	4F/	.	.	.
=38.	=38.	=38.	=38.	=38.
1C	1E	0c]	0G	2cc\]
.	.	.	.	4b\
.	.	.	.	4a/
1C	1E	.	.	2g/
.	.	.	.	2a/
=39	=39	=39	=39	=39
2GG/	0D	0d	0r	1b
2.G\	.	.	.	.
.	.	.	.	1a
4F#i\	.	.	.	.
2F#i\	.	.	.	.
=40.	=40.	=40.	=40.	=40.
1G	1r	0B	1d	1r
1GG	1G	.	2d\	1g
.	.	.	2d\	.
=41	=41	=41	=41	=41
1r	2E/	[0c	4e\	1a
.	.	.	4d\	.
.	1F	.	4c\	.
.	.	.	4B\	.
1AA	.	.	1A	[1cc
.	4E/	.	.	.
.	4D/	.	.	.
=42.	=42.	=42.	=42.	=42.
1.C	1E	0c]	1.e	2cc\]
.	.	.	.	4b\
.	.	.	.	4a/
.	[1G	.	.	2g/
4BB/	.	.	4d\	2a/
4AA/	.	.	4c\	.
=43	=43	=43	=43	=43
2GG/	2G/]	0d	2B\	2b\
2AA/	4F/	.	2A/	2cc\
.	4E/	.	.	.
2BB/	1D	.	2r	1dd
[2GG/	.	.	[2B\	.
=44.	=44.	=44.	=44.	=44.
2GG/]	2r	[0e	2B\]	2b\
2.AA/	1A	.	2A/	1cc
.	.	.	1c	.
4BB/	.	.	.	.
4C/	4G/	.	.	4b\
4D\	4F/	.	.	4a/
=45	=45	=45	=45	=45
2E\	2G/	0e]	2B\	2g/
2AA/	2E/	.	2A/	2cc\
2.E\	1G	.	2B\	2b\
.	.	.	[2e\	[2cc\
4F\	.	.	.	.
=46.	=46.	=46.	=46.	=46.
2G\	1G	[0d	4e\]	4cc\]
.	.	.	4f\	4b\
2GG/	.	.	2.g\	1b
1D	1A	.	.	.
.	.	.	4f#i\	.
.	.	.	2f#i\	2a/
=47	=47	=47	=47	=47
0GG	1G	0d]	1g	0b
.	1B	.	2r	.
.	.	.	2G/	.
=48.	=48.	=48.	=48.	=48.
0r	2c\	0r	2.A/	0r
.	1A	.	.	.
.	.	.	4B\	.
.	.	.	2c\	.
.	4G/	.	2d\	.
.	4F/	.	.	.
=49	=49	=49	=49	=49
0r	2E/	0r	2e\	0r
.	2D/	.	2f\	.
.	2E/	.	2g\	.
.	2F/	.	[2f\	.
=50.	=50.	=50.	=50.	=50.
1r	2G/	0r	2f\]	0r
.	2A/	.	2.e\	.
1D	1F	.	.	.
.	.	.	4d\	.
.	.	.	2d\	.
=51	=51	=51	=51	=51
2.AA/	2E/	0r	0e	0r
.	1A	.	.	.
4BB/	.	.	.	.
2C/	.	.	.	.
2D\	4G/	.	.	.
.	4F/	.	.	.
=52.	=52.	=52.	=52.	=52.
2E\	2G/	0r	0r	0r
2F\	2A/	.	.	.
2G\	2E/	.	.	.
[2F\	[2A/	.	.	.
=53	=53	=53	=53	=53
2F\]	2A/]	0r	0r	0r
1E	2G/	.	.	.
.	1F	.	.	.
2D\	.	.	.	.
=54.	=54.	=54.	=54.	=54.
1.E	2.E/	0r	0r	0r
.	4F/	.	.	.
.	2G/	.	.	.
4D\	2A/	.	.	.
4C/	.	.	.	.
=55	=55	=55	=55	=55
2BB/	2B\	0r	0r	0r
2AA/	2c\	.	.	.
2BB/	2d\	.	.	.
2C/	[2c\	.	.	.
=56.	=56.	=56.	=56.	=56.
2D\	2c\]	0r	0r	1b
2E\	2.B\	.	.	.
1C	.	.	.	1cc
.	4A/	.	.	.
.	2A/	.	.	.
=57	=57	=57	=57	=57
0BB	[0B	0d	0r	1.dd
.	.	.	.	2cc\
=58.	=58.	=58.	=58.	=58.
0E	0B]	0e	0r	2b\
.	.	.	.	2a/
.	.	.	.	1g
=59	=59	=59	=59	=59
0BB	0r	[0d	0r	2r
.	.	.	.	1dd
.	.	.	.	[2b\
=60.	=60.	=60.	=60.	=60.
0r	0r	0d]	0r	2b\]
.	.	.	.	4a/
.	.	.	.	4g/
.	.	.	.	2a/
.	.	.	.	2b\
=61	=61	=61	=61	=61
0r	0r	1.c	1.A	2.e/
.	.	.	.	4f/
.	.	.	.	2g/
.	.	4B\	4G/	2a/
.	.	4A/	4F/	.
=62.	=62.	=62.	=62.	=62.
0r	0r	2G/	2E/	2b\
.	.	2A/	2e\	2cc\
.	.	2B\	2d\	2dd\
.	.	2c\	2e\	[2cc\
=63	=63	=63	=63	=63
0r	0r	2.d\	1B	2cc\]
.	.	.	.	2.b\
.	.	4e\	.	.
.	.	1c	1e	.
.	.	.	.	4a/
.	.	.	.	2a/
=64.	=64.	=64.	=64.	=64.
0GG	1r	0B	1d	0b
.	1G	.	1d	.
=65	=65	=65	=65	=65
1GG	2.G/	1B	1d	1r
.	4F/	.	.	.
2.C/	2.E/	[1c	[1e	1g
4BB/	4D/	.	.	.
=66.	=66.	=66.	=66.	=66.
1AA	1C	1c]	2e\]	1a
.	.	.	4d\	.
.	.	.	4c\	.
[1GG	[1G	[1d	[1B	1b
=67	=67	=67	=67	=67
1GG]	1G]	2d\]	1B]	1b
.	.	4c\	.	.
.	.	4B\	.	.
[1AA	[1E	1A	1e	2.cc\
.	.	.	.	4b\
=68.	=68.	=68.	=68.	=68.
1AA]	1E]	1c	1e	1a
1E	1G	1B	2e\	1g
.	.	.	[2e\	.
=69	=69	=69	=69	=69
2C/	2E/	0A	2e\]	2r
2.D\	2.F/	.	1d	1a
4C/	4G/	.	.	.
2AA/	2A/	.	2c\	2cc\
=70.	=70.	=70.	=70.	=70.
2GG/	2D/	1d	2d\	2b\
2D\	2F/	.	2A/	2a/
1AA	[1E	[1c	[1e	2.cc\
.	.	.	.	4b\
=71	=71	=71	=71	=71
1C	1E]	2c\]	1e]	4a/
.	.	.	.	4g/
.	.	2B\	.	1g
1D	1F	1A	1d	.
.	.	.	.	2f#i/
=72.	=72.	=72.	=72.	=72.
0GG	1D	0G	0B	1g
.	2r	.	.	[1dd
.	[2d\	.	.	.
=73	=73	=73	=73	=73
2.G\	2d\]	0r	1r	2dd\]
.	1G	.	.	2b\
4F\	.	.	.	.
2E\	.	.	2r	2cc\
2D\	2A/	.	[2d\	[2dd\
=74.	=74.	=74.	=74.	=74.
1G	1B	0r	2d\]	2dd\]
.	.	.	2e\	2.b\
1F	1c	.	1f	.
.	.	.	.	4a/
.	.	.	.	2a/
=75	=75	=75	=75	=75
0G	0B	1r	1d	0b
.	.	1G	1g	.
=76.	=76.	=76.	=76.	=76.
1r	0r	1A	2f\	0r
.	.	.	1e	.
2.C/	.	[1c	.	.
.	.	.	[2c\	.
4D\	.	.	.	.
=77	=77	=77	=77	=77
2E\	0r	1c]	2c\]	0r
1F	.	.	4B\	.
.	.	.	4A/	.
.	.	1c	1G	.
2E\	.	.	.	.
=78.	=78.	=78.	=78.	=78.
2F\	0r	1.c	1A	0r
4E\	.	.	.	.
4D\	.	.	.	.
2C/	.	.	1r	.
2D\	.	4B\	.	.
.	.	4A/	.	.
=79	=79	=79	=79	=79
2E\	0r	2G/	0r	0r
2F\	.	2A/	.	.
2G\	.	2B\	.	.
2E\	.	2c\	.	.
=80.	=80.	=80.	=80.	=80.
2F\	0r	2.d\	0r	0r
2.G\	.	.	.	.
.	.	4c\	.	.
.	.	4B\	.	.
4F\	.	4A/	.	.
4E\	.	[2c\	.	.
4D\	.	.	.	.
=81	=81	=81	=81	=81
1F	0r	2c\]	0r	0r
.	.	1c	.	.
1E	.	.	.	.
.	.	[2B\	.	.
=82.	=82.	=82.	=82.	=82.
2D\	0r	2B\]	0d	1r
2C/	.	2.A/	.	.
1BB	.	.	.	1b
.	.	4G#i/	.	.
.	.	2G#i/	.	.
=83	=83	=83	=83	=83
0AA	[0e	1A	1.c	1cc
.	.	1A	.	[1cc
.	.	.	2B\	.
=84.	=84.	=84.	=84.	=84.
1AA	1e]	0c	2A/	2cc\]
.	.	.	4G/	4b\
.	.	.	4F/	4a/
[1C	1e	.	[1E	[1g
=85	=85	=85	=85	=85
1C]	0e	[0G	2E/]	2g/]
.	.	.	2F/	2a/
1C	.	.	2G/	2b\
.	.	.	2A/	2cc\
=86.	=86.	=86.	=86.	=86.
1GG	1d	0G_	1B	2dd\
.	.	.	.	1g
1C	1c	.	1e	.
.	.	.	.	[2cc\
=87	=87	=87	=87	=87
0GG	0d	0G]	0g	2cc\]
.	.	.	.	4b\
.	.	.	.	4a/
.	.	.	.	1b
=88.	=88.	=88.	=88.	=88.
0C	1c	0r	2e\	0cc
.	.	.	1g	.
.	1G	.	.	.
.	.	.	4f\	.
.	.	.	4e\	.
=89	=89	=89	=89	=89
0r	1B	0r	1d	1r
.	1c	.	1c	1g
=90.	=90.	=90.	=90.	=90.
0r	2d\	0r	0r	1b
.	1e	.	.	.
.	.	.	.	1cc
.	4d\	.	.	.
.	4c\	.	.	.
=91	=91	=91	=91	=91
0r	2B\	0r	0r	2.dd\
.	1d	.	.	.
.	.	.	.	4cc\
.	.	.	.	4b\
.	.	.	.	4a/
.	2D/	.	.	4b\
.	.	.	.	4a/
=92.	=92.	=92.	=92.	=92.
0r	2E/	0r	0r	1cc
.	2F/	.	.	.
.	2G/	.	.	2b\
.	2A/	.	.	[2a/
=93	=93	=93	=93	=93
0r	2B\	0r	0r	2a/]
.	2c\	.	.	2.g/
.	1A	.	.	.
.	.	.	.	4f#i/
.	.	.	.	2f#i/
=94.	=94.	=94.	=94.	=94.
[0GG	[0B	0G	0d	1g
.	.	.	.	[1dd
=95	=95	=95	=95	=95
1GG]	0B]	0G	1d	1dd]
1BB	.	.	1d	1b
=96.	=96.	=96.	=96.	=96.
0AA	1r	0A	[0c	1cc
.	1E	.	.	[1a
=97	=97	=97	=97	=97
0FF	1F	0A	1c]	1a]
.	1F	.	1A	1cc
=98.	=98.	=98.	=98.	=98.
0GG	1D	1.G	2.B\	1b
.	.	.	4c\	.
.	2D/	.	1d	2r
.	[2G/	[2G/	.	2d/
=99	=99	=99	=99	=99
2r	2G/]	2G/]	2B\	2.g/
1GG	1D	1B	1d	.
.	.	.	.	4a/
.	.	.	.	2b\
2AA/	[2F/	[2A/	2c\	2cc\
=100.	=100.	=100.	=100.	=100.
2BB/	2F/]	2A/]	2B\	2dd\
2C/	4E/	2.G/	2G/	2g/
.	4D/	.	.	.
1AA	1C	.	1A	1cc
.	.	4F#i/	.	.
.	.	2F#i/	.	.
=101	=101	=101	=101	=101
[0GGl	[0Dl	[0Gl	2B\	[0bl
.	.	.	2D/	.
.	.	.	2.G/	.
.	.	.	4A/	.
=102.	=102.	=102.	=102.	=102.
0GG_	0D_	0G_	2B\	0b_
.	.	.	2c\	.
.	.	.	1d	.
=103	=103	=103	=103	=103
0GG]	0D]	0G]	0dl	0b]
!!LO:LB:i:g=z
=104||	=104||	=104||	=104||	=104||
*>B	*>B	*>B	*>B	*>B
*clefF4	*clefGv2	*clefGv2	*clefGv2	*clefG2
*k[]	*k[]	*k[]	*k[]	*k[]
*M2/1	*M2/1	*M2/1	*M2/1	*M2/1
*met(C2)	*met(C2)	*met(C2)	*met(C2)	*met(C2)
!!section: Qui tollis
!!!OMD: Qui tollis
1r	0G	0r	0r	0r
[1C	.	.	.	.
=105.	=105.	=105.	=105.	=105.
1C]	1A	0r	0r	0r
1D	1B	.	.	.
=106	=106	=106	=106	=106
1E	0B	0r	0r	0r
1E	.	.	.	.
=107.	=107.	=107.	=107.	=107.
1E	1r	0r	0r	0r
1D	1B	.	.	.
=108	=108	=108	=108	=108
1F	1A	0r	0r	0r
2.C/	[1c	.	.	.
4D\	.	.	.	.
=109.	=109.	=109.	=109.	=109.
4E\	2c\]	0r	0r	0r
4F\	.	.	.	.
1G	2B\	.	.	.
.	1A	.	.	.
2F\	.	.	.	.
=110	=110	=110	=110	=110
1G	1G	0r	0r	0r
2F\	2r	.	.	.
[2G\	[2B\	.	.	.
=111.	=111.	=111.	=111.	=111.
2G\]	2B\]	0r	0r	0r
4F\	4A/	.	.	.
4E\	4G/	.	.	.
1D	2A/	.	.	.
.	2B\	.	.	.
=112	=112	=112	=112	=112
2r	2.c\	0r	0r	0r
2C/	.	.	.	.
.	4B\	.	.	.
2D\	2A/	.	.	.
[2E\	[2G/	.	.	.
=113.	=113.	=113.	=113.	=113.
2E\]	2G/]	0r	0r	0r
4D\	4F/	.	.	.
4C/	4E/	.	.	.
2D\	2F/	.	.	.
2E\	2G/	.	.	.
=114	=114	=114	=114	=114
2.F\	2A/	0r	0r	0r
.	2c\	.	.	.
4E\	.	.	.	.
2D\	2B\	.	.	.
[2C/	[2A/	.	.	.
=115.	=115.	=115.	=115.	=115.
4C/]	4A/]	0r	0r	0r
4BB/	4G/	.	.	.
4AA/	1G	.	.	.
4GG/	.	.	.	.
1AA	.	.	.	.
.	2F#i/	.	.	.
=116	=116	=116	=116	=116
0GG	0G	0r	0r	1r
.	.	.	.	[1g
=117.	=117.	=117.	=117.	=117.
0r	0r	0r	0c	1g]
.	.	.	.	1a
=118	=118	=118	=118	=118
0r	0r	0r	1d	1b
.	.	.	1e	1b
=119.	=119.	=119.	=119.	=119.
0r	0r	0r	1e	2r
.	.	.	.	2b\
.	.	.	2r	[1b
.	.	.	2e\	.
=120	=120	=120	=120	=120
0r	0r	0r	1e	1b]
.	.	.	1d	1b
=121.	=121.	=121.	=121.	=121.
0r	0r	0r	1f	1a
.	.	.	2.c\	[1cc
.	.	.	4d\	.
=122	=122	=122	=122	=122
0r	0r	0r	4e\	2cc\]
.	.	.	4f\	.
.	.	.	1g	2b\
.	.	.	.	1a
.	.	.	2f\	.
=123.	=123.	=123.	=123.	=123.
1.GG	1B	0G	2g\	1g
.	.	.	4f\	.
.	.	.	4e\	.
.	2B\	.	1d	2r
2GG/	[2B\	.	.	[2g/
=124	=124	=124	=124	=124
2GG/	2B\]	0G	2r	2g/]
2.C/	1c	.	1e	2g/
.	.	.	.	2.g/
4D\	.	.	.	.
4E\	4B\	.	2e\	.
4F\	4A/	.	.	4a/
=125.	=125.	=125.	=125.	=125.
2G\	2.G/	0G	2B\	2b\
2C/	.	.	1e	1cc
.	4F/	.	.	.
1C	1E	.	.	.
.	.	.	2c\	4b\
.	.	.	.	4a/
=126	=126	=126	=126	=126
1GG	1D	0G	1d	1b
1C	1r	.	1e	1cc
=127.	=127.	=127.	=127.	=127.
2BB/	1D	[0B	0d	1.dd
2GG/	.	.	.	.
[1GG	1D	.	.	.
.	.	.	.	2dd\
=128	=128	=128	=128	=128
1GG]	1G	0B]	1d	2.dd\
.	.	.	.	4cc\
1GG	1G	.	1d	2b\
.	.	.	.	2a/
=129.	=129.	=129.	=129.	=129.
0C	1E	0c	0e	1g
.	[1G	.	.	1cc
=130	=130	=130	=130	=130
1.GG	1G]	0d	2d\	1b
.	.	.	1B	.
.	1G	.	.	1dd
4AA/	.	.	2B\	.
4BB/	.	.	.	.
=131.	=131.	=131.	=131.	=131.
2C/	0E	[0e	2A/	2cc\
2GG/	.	.	2B\	2.b\
1AA	.	.	1c	.
.	.	.	.	4a/
.	.	.	.	2a/
=132	=132	=132	=132	=132
0E	1r	0e]	[0B	[0b
.	2.E/	.	.	.
.	4F/	.	.	.
=133.	=133.	=133.	=133.	=133.
0BB	2G/	0d	0B]	0b]
.	2A/	.	.	.
.	1B	.	.	.
=134	=134	=134	=134	=134
1.E	1c	0r	0r	0r
.	2c\	.	.	.
2D\	[2B\	.	.	.
=135.	=135.	=135.	=135.	=135.
2C/	4B\]	0r	0r	1r
.	4A/	.	.	.
4BB/	1A	.	.	.
4AA/	.	.	.	.
1BB	.	.	.	1b
.	2G#i/	.	.	.
=136	=136	=136	=136	=136
0AA	0A	0r	1r	1.cc
.	.	.	2.A/	.
.	.	.	.	2b\
.	.	.	4B\	.
=137.	=137.	=137.	=137.	=137.
0r	0r	0r	4c\	2a/
.	.	.	4d\	.
.	.	.	1e	2g/
.	.	.	.	1f
.	.	.	2d\	.
=138	=138	=138	=138	=138
0r	0r	0r	1e	1e
.	.	.	1g	2r
.	.	.	.	2e/
=139.	=139.	=139.	=139.	=139.
0r	0r	0r	1e	2.g/
.	.	.	.	4a/
.	.	.	2r	2b\
.	.	.	2e\	2cc\
=140	=140	=140	=140	=140
0r	0r	0r	1e	2b\
.	.	.	.	1cc
.	.	.	2d\	.
.	.	.	2B\	[2b\
=141.	=141.	=141.	=141.	=141.
0r	0r	0r	1c	2b\]
.	.	.	.	2a/
.	.	.	1B	2b\
.	.	.	.	2b\
=142	=142	=142	=142	=142
0r	0r	0r	2r	2b\
.	.	.	2B\	2.dd\
.	.	.	2B\	.
.	.	.	.	4cc\
.	.	.	2B\	2b\
=143.	=143.	=143.	=143.	=143.
0r	0r	0r	2.d\	2a/
.	.	.	.	1dd
.	.	.	4c\	.
.	.	.	2B\	.
.	.	.	2A/	2cc\
=144	=144	=144	=144	=144
0r	0r	0r	2G/	2b\
.	.	.	2d\	2.a/
.	.	.	4c\	.
.	.	.	4B\	4g/
.	.	.	4A/	[2g/
.	.	.	4G/	.
=145.	=145.	=145.	=145.	=145.
0r	0r	0r	1A	2g/]
.	.	.	.	2f#i/
.	.	.	1G	1g
=146	=146	=146	=146	=146
0GG	0B	[0d	0r	0r
=147.	=147.	=147.	=147.	=147.
1GG	1B	0d]	0r	0r
1GG	1B	.	.	.
=148	=148	=148	=148	=148
0AA	1A	[0c	0r	0r
.	2E/	.	.	.
.	[2A/	.	.	.
=149.	=149.	=149.	=149.	=149.
1AA	2A/]	0c]	0r	0r
.	4G/	.	.	.
.	4F/	.	.	.
1AA	1E	.	.	.
=150	=150	=150	=150	=150
2.AA/	2r	0A	0r	0r
.	1c	.	.	.
4BB/	.	.	.	.
2C/	.	.	.	.
[2D\	2A/	.	.	.
=151.	=151.	=151.	=151.	=151.
2D\]	2B\	0r	0r	0r
2E\	2c\	.	.	.
2F\	2.d\	.	.	.
[2D\	.	.	.	.
.	4c\	.	.	.
=152	=152	=152	=152	=152
2D\]	4B\	0d	0r	0r
.	4A/	.	.	.
2C/	1A	.	.	.
1BB	.	.	.	.
.	2G#i/	.	.	.
=153.	=153.	=153.	=153.	=153.
1AA	0A	1c	0r	0r
1D	.	1d	.	.
=154	=154	=154	=154	=154
1C	1r	1e	0r	0r
1D	1d	2A/	.	.
.	.	2B\	.	.
=155.	=155.	=155.	=155.	=155.
2E\	1c	2G/	0r	0r
1F	.	1A	.	.
.	1d	.	.	.
4E\	.	4G/	.	.
4D\	.	4F/	.	.
=156	=156	=156	=156	=156
2C/	0e	2E/	0r	0r
2AA/	.	2A/	.	.
1C	.	2E/	.	.
.	.	[2A/	.	.
=157.	=157.	=157.	=157.	=157.
1BB	1.d	2A/]	0r	0r
.	.	4G/	.	.
.	.	4F/	.	.
1GG	.	1G	.	.
.	2B\	.	.	.
=158	=158	=158	=158	=158
2AA/	2c\	2E/	0r	0r
2.D\	2A/	2.F/	.	.
.	2B\	.	.	.
4C/	.	4E/	.	.
4BB/	[2d\	[2D/	.	.
4AA/	.	.	.	.
=159.	=159.	=159.	=159.	=159.
2GG/	2d\]	2D/]	0r	1g
2BB/	2B\	2.G/	.	.
1AA	1c	.	.	1a
.	.	4F#i/	.	.
.	.	2F#i/	.	.
=160	=160	=160	=160	=160
[0GG	[0B	[0G	1d	1b
.	.	.	2d\	[1b
.	.	.	[2d\	.
=161.	=161.	=161.	=161.	=161.
0GG]	0B]	0G]	4d\]	1b]
.	.	.	4c\	.
.	.	.	4B\	.
.	.	.	4A/	.
.	.	.	2G/	[1b
.	.	.	2e\	.
=162	=162	=162	=162	=162
0r	0r	0r	2d\	1b]
.	.	.	2d\	.
.	.	.	1f	1a
=163.	=163.	=163.	=163.	=163.
0r	0r	0r	1c	1cc
.	.	.	2r	1g
.	.	.	[2g\	.
=164	=164	=164	=164	=164
0r	0r	0r	2g\]	2r
.	.	.	2f\	1dd
.	.	.	2g\	.
.	.	.	2e\	2cc\
=165.	=165.	=165.	=165.	=165.
0r	0r	0r	2f\	2dd\
.	.	.	4e\	2b\
.	.	.	4d\	.
.	.	.	2.c\	2cc\
.	.	.	.	4b\
.	.	.	4d\	4a/
=166	=166	=166	=166	=166
0r	0r	0r	1.e	2g/
.	.	.	.	2c/
.	.	.	.	2.g/
.	.	.	2c\	.
.	.	.	.	4a/
=167.	=167.	=167.	=167.	=167.
0r	0r	0r	2d\	2b\
.	.	.	2e\	2g/
.	.	.	2c\	2a/
.	.	.	2d\	2b\
=168	=168	=168	=168	=168
0r	0r	0r	2e\	2cc\
.	.	.	1d	2dd\
.	.	.	.	2b\
.	.	.	2B\	[2dd\
=169.	=169.	=169.	=169.	=169.
0r	0r	0r	2d\	4dd\]
.	.	.	.	4cc\
.	.	.	2e\	1b
.	.	.	1c	.
.	.	.	.	2a/
=170	=170	=170	=170	=170
1r	1.d	0r	0B	0b
[1G	.	.	.	.
.	2c\	.	.	.
=171.	=171.	=171.	=171.	=171.
2G\]	2B\	0r	0r	0r
2F\	2A/	.	.	.
1E	2G/	.	.	.
.	[2c\	.	.	.
=172	=172	=172	=172	=172
2D\	4c\]	0r	0r	0r
.	4B\	.	.	.
2E\	1B	.	.	.
1C	.	.	.	.
.	2A/	.	.	.
=173.	=173.	=173.	=173.	=173.
1.BB	2G/	0r	0B	0r
.	4F/	.	.	.
.	4E/	.	.	.
.	2D/	.	.	.
2C/	2E/	.	.	.
=174	=174	=174	=174	=174
2D\	2r	0r	1B	0b
1E	1G	.	.	.
.	.	.	1B	.
2D\	2F/	.	.	.
=175.	=175.	=175.	=175.	=175.
2E\	2G/	0r	2B\	1b
2BB/	2D/	.	2.d\	.
1E	1G	.	.	1b
.	.	.	4c\	.
.	.	.	[2B\	.
=176	=176	=176	=176	=176
2D\	2F/	0r	2B\]	1b
2C/	1E	.	2.A/	.
1BB	.	.	.	1b
.	.	.	4G#i/	.
.	2D/	.	2G#i/	.
=177.	=177.	=177.	=177.	=177.
[0AA	[0E	[0A	1A	0cc
.	.	.	1e	.
=178	=178	=178	=178	=178
0AA]	0E]	0A]	2e\	0cc
.	.	.	2.c\	.
.	.	.	4d\	.
.	.	.	4e\	.
.	.	.	4f\	.
=179.	=179.	=179.	=179.	=179.
0r	1r	0G	1.g	1b
.	1B	.	.	1b
.	.	.	4f\	.
.	.	.	4e\	.
=180	=180	=180	=180	=180
0r	1B	1G	1d	2.g/
.	.	.	.	4a/
.	1d	1G	[1g	4b\
.	.	.	.	4cc\
.	.	.	.	4dd\
.	.	.	.	4b\
=181.	=181.	=181.	=181.	=181.
0r	1c	1E	1g]	2cc\
.	.	.	.	1b
.	1c	1F	1f	.
.	.	.	.	2a/
=182	=182	=182	=182	=182
1r	1B	0G	1d	1b
1BB	1B	.	1d	1b
=183.	=183.	=183.	=183.	=183.
1.AA	1.E	[0A	0c	1.cc
2AA/	2E/	.	.	2cc\
=184	=184	=184	=184	=184
0D	0F	0A]	0d	1a
.	.	.	.	[1dd
=185.	=185.	=185.	=185.	=185.
1BB	1D	1G	0r	2dd\]
.	.	.	.	4cc\
.	.	.	.	4b\
2AA/	1E	2A/	.	2cc\
2E\	.	2G/	.	[2b\
=186	=186	=186	=186	=186
2F\	1r	2c\	1r	2b\]
2D\	.	2d\	.	2.a/
1E	[1E	1B	1e	.
.	.	.	.	4g#i/
.	.	.	.	2g#i/
=187.	=187.	=187.	=187.	=187.
0AA	0E_	0A	2e\	1a
.	.	.	1e	.
.	.	.	.	1cc
.	.	.	2A/	.
=188	=188	=188	=188	=188
2r	1E]	1G	2B\	2b\
2C/	.	.	2c\	2g/
2BB/	1D	1G	2d\	[1dd
[2GG/	.	.	2g\	.
=189.	=189.	=189.	=189.	=189.
4GG/]	[0D	1B	2d\	1dd]
4AA/	.	.	.	.
4BB/	.	.	1g	.
4C/	.	.	.	.
1D	.	1A	.	2dd\
.	.	.	2f\	2dd\
=190	=190	=190	=190	=190
0GG	0D]	0G	2g\	2b\
.	.	.	4f\	2.dd\
.	.	.	4e\	.
.	.	.	1d	.
.	.	.	.	4cc\
.	.	.	.	2b\
=191.	=191.	=191.	=191.	=191.
0r	0r	1d	0r	2a/
.	.	.	.	2b\
.	.	2c\	.	4a/
.	.	.	.	4b\
.	.	2A/	.	4cc\
.	.	.	.	4b\
=192	=192	=192	=192	=192
0r	0r	4c\	0r	4a/
.	.	4B\	.	4g/
.	.	4A/	.	1g
.	.	4G/	.	.
.	.	1A	.	.
.	.	.	.	2f#i/
=193.	=193.	=193.	=193.	=193.
2r	2.d\	0G	0r	0g
2.G\	.	.	.	.
.	4c\	.	.	.
.	4B\	.	.	.
4F\	4A/	.	.	.
4E\	2G/	.	.	.
4D\	.	.	.	.
=194	=194	=194	=194	=194
2C/	2.A/	0r	0r	1r
2.D\	.	.	.	.
.	4G/	.	.	.
.	4F/	.	.	2r
4C/	4E/	.	.	.
4BB/	[2D/	.	.	[2dd\
4AA/	.	.	.	.
=195.	=195.	=195.	=195.	=195.
1GG	2D/]	0r	2.g\	4dd\]
.	.	.	.	4cc\
.	2D/	.	.	4b\
.	.	.	4f\	4a/
1r	2E/	.	4e\	2g/
.	.	.	4d\	.
.	2F/	.	2c\	[2a/
=196	=196	=196	=196	=196
1r	2D/	0r	2d\	4a/]
.	.	.	.	4g/
.	1G	.	2.d\	4f/
.	.	.	.	4e/
2r	.	.	.	2d/
.	.	.	4c\	.
2D\	2F/	.	4B\	2a/
.	.	.	4A/	.
=197.	=197.	=197.	=197.	=197.
4GG/	2E/	2.G/	1G	2.b\
4AA/	.	.	.	.
4BB/	4D/	.	.	.
4C/	4E/	4E/	.	4g/
2AA/	2C/	2F/	2r	2a/
2GG/	2D/	2G/	2d\	2b\
=198	=198	=198	=198	=198
2r	2r	2C/	2e\	2cc\
1D	1F	1A	2f\	1a
.	.	.	1d	.
2BB/	2D/	2G/	.	2b\
=199.	=199.	=199.	=199.	=199.
4AA/	2.E/	2.A/	1c	2.cc\
4BB/	.	.	.	.
4C/	.	.	.	.
4D\	4F/	4F/	.	4a/
2BB/	2D/	2G/	2r	2b\
2AA/	2C/	2A/	2e\	2cc\
=200	=200	=200	=200	=200
2r	2r	2D/	2f\	2dd\
1E	1G	1G	2g\	1b
.	.	.	2.e\	.
2AA/	2E/	[2A/	.	2cc\
.	.	.	4c\	.
=201.	=201.	=201.	=201.	=201.
2D\	2F/	2A/]	1d	2a/
2GG/	1D	1G	.	2b\
2BB/	.	.	2d\	2g/
2C/	2E/	2E/	[2c\	[2a/
=202	=202	=202	=202	=202
1AA	1C	1F	2c\]	2a/]
.	.	.	2A/	2cc\
1GG	1D	2.G/	2B\	2.b\
.	.	.	[2d\	.
.	.	4E/	.	4g/
=203.	=203.	=203.	=203.	=203.
2D\	1r	2F/	2d\]	2a/
2E\	.	2G/	2c\	2.g/
1D	1A	1A	1d	.
.	.	.	.	4f#i/
.	.	.	.	2f#i/
=204	=204	=204	=204	=204
1r	1B	[0Gl	[0dl	[0gl
1GG	2B\	.	.	.
.	[2G/	.	.	.
=205.	=205.	=205.	=205.	=205.
[0GGl	2G/]	0G_	0d_	0g_
.	4F/	.	.	.
.	4E/	.	.	.
.	1D	.	.	.
=206	=206	=206	=206	=206
0GG]	0Dl	0G]	0d]	0g]
==	==	==	==	==
*-	*-	*-	*-	*-
!!!RDF**kern: l=long note in original notation
!!!RDF**kern: i=editorial accidental
!!!RDF**kern: V=start of tuplet marker
!!!RDF**kern: Z=end of tuplet marker
!!!ENC:	Chris Gage 04-16-2013
!!!END:	2013/08/01/
!!!EED:	Jesse Rodin
!!!EEV:	2013/08/02/
!!!ONB:	Translated from MusicXML and edited on 2013/08/02/ by Craig Sapp
!!muse2ps: T^@{OPR}^u^@{ONM}{. }@{OTL}^C^@{COM}^i2I150v85,85,85,85,130Q16
